X:347
T:Haunted House, The
T:Maguire's
R:jig
C:Vincent Broderick (1920-2008)
H:Also played in G, #173
D:Four Men and a Dog: Barking Mad
Z:id:hn-jig-347
M:6/8
K:A
A2A BAB|cAF FEF|Ace fae|fae fec|A2A BAB|cAF FEF|Ace faf|ecB A2E:|
|:Ace fae|fae fec|Acd ~e3|efe ecB|1 Ace fae|fae fec|
Ace faf|ecB A2E:|2 A2A BAB|cAF FEF|Ace faf|ecB A2E||

